X:1
T:Ghostly Tune from the Living Library
M:4/4
L:1/8
R:Waltz
K:C minor
|: (3fef g2 f2 | (3ged c2 B2 | (3fef A2 G2 | (3FGA F2 E2 | (3fef g2 f2 | (3ged c2 B2 | (3A,BA G2 F2 | E4 :|
|: (3cde f2 e2 | (3d^cd c2 B2 | (3A,BA G2 F2 | E4 | (3cde f2 e2 | (3d^cd c2 B2 | (3A,BA G2 F2 | E4 :|